!!!COM: Kittel, Johann Christian
!!!CDT: 1732/02/18-1809/04/17
!!!OPR: 24 Choräle mit acht verschiedenen Bässen
!!!ONM: 1
!!!OTL@@DE: Gott des Himmels und der Erden
**kern	**fb	**kern	**fb	**kern	**fb	**kern	**fb	**kern	**fb	**kern	**fb	**kern	**fb	**kern	**fb	**kern
*	*slash	*	*slash	*	*slash	*	*slash	*	*slash	*	*slash	*	*slash	*	*slash	*
*I"8	*	*I"7	*	*I"6	*	*I"5	*	*I"4	*	*I"3	*	*I"2	*	*I"1	*	*I"c.f.
*I'8	*	*I'7	*	*I'6	*	*I'5	*	*I'4	*	*I'3	*	*I'2	*	*I'1	*	*I'c.f.
*clefF4	*	*clefF4	*	*clefF4	*	*clefF4	*	*clefF4	*	*clefF4	*	*clefF4	*	*clefF4	*	*clefG2
*k[f#]	*	*k[f#]	*	*k[f#]	*	*k[f#]	*	*k[f#]	*	*k[f#]	*	*k[f#]	*	*k[f#]	*	*k[f#]
*M4/4	*	*M4/4	*	*M4/4	*	*M4/4	*	*M4/4	*	*M4/4	*	*M4/4	*	*M4/4	*	*M4/4
*met(c)	*	*met(c)	*	*met(c)	*	*met(c)	*	*met(c)	*	*met(c)	*	*met(c)	*	*met(c)	*	*met(c)
*MM180	*	*MM180	*	*MM180	*	*MM180	*	*MM180	*	*MM180	*	*MM180	*	*MM180	*	*MM180
=1	=1	=1	=1	=1	=1	=1	=1	=1	=1	=1	=1	=1	=1	=1	=1	=1
*	*	*	*	*	*	*	*	*G:	*	*G:	*	*G:	*	*G:	*	*G:
4GG	8_ 3_	4GG	8_ 3_	2GG	.	2r	.	2G	.	2B	6	2G	.	2GG	.	2g
4G	X X	2G	X X	.	.	.	.	.	.	.	.	.	.	.	.	.
4F#	6_	.	5_ 2_	2FF#	6	2r	.	2F#	6	2A	6	2F#	6	2D	.	2a
4D	X	4F#	X X	.	.	.	.	.	.	.	.	.	.	.	.	.
=2.	=2.	=2.	=2.	=2.	=2.	=2.	=2.	=2.	=2.	=2.	=2.	=2.	=2.	=2.	=2.	=2.
2G	.	4G	3 5	2GG	.	2GG	.	2G	.	2G	.	2G	.	2G	.	2b
.	.	4GG	.	.	.	.	.	.	.	.	.	.	.	.	.	.
4r	0	4r	.	2AA	6 4	2AA	6 4	2D	8	2F#	6	2D	.	2F#	6	2dd
*D:	*	*	*	*	*	*	*	*	*	*	*	*	*	*	*	*
4FF#	6	4D	8 3	.	.	.	.	.	7	.	.	.	.	.	.	.
=3.	=3.	=3.	=3.	=3.	=3.	=3.	=3.	=3.	=3.	=3.	=3.	=3.	=3.	=3.	=3.	=3.
*	*	*D:	*	*D:	*	*D:	*	*	*	*D:	*	*D:	*	*D:	*	*
2BB	6	(4C#	6 5	(4BB	6	(4BB	6_	2E	.	2E	7	2C#	6 5	2E	6#|	2g
.	.	4AA)	.	4C#)	6 5	4C#)	X	.	.	.	6#|	.	.	.	.	.
4r	0	4D	9	(4D	9	[2D	3 5	2BB	.	1D	3 5	2D	3 5	2D	.	2f#
4AA	6 4	4FF#	6	4FF#)	6	.	.	.	.	.	.	.	.	.	.	.
=4.	=4.	=4.	=4.	=4.	=4.	=4.	=4.	=4.	=4.	=4.	=4.	=4.	=4.	=4.	=4.	=4.
(4GG	6_ 5_	4GG	6_ 5_	(4GG	6_ 5_	2D]	4 2_	1C	9	.	4 2_	1AA	4 8_	1AA	5_ 4	1e
8FF#L	.	4EE	X X	4GG#)	X X	.	3 X	.	.	.	3 X	.	.	.	.	.
8GGJ)	X X	.	.	.	.	.	.	.	.	.	.	.	.	.	.	.
4AA	#_ 8_	2AA	# 8	(4AA	#_	2C#	6_ 3	.	8	2C#	6_ 3	.	#	.	X #	.
4AA	.	.	X 7	4GGnX)	X	.	X 5	.	.	.	X 5	.	X 7	.	.	.
.	X 7	.	.	.	.	.	.	.	.	.	.	.	.	.	.	.
=5.	=5.	=5.	=5.	=5.	=5.	=5.	=5.	=5.	=5.	=5.	=5.	=5.	=5.	=5.	=5.	=5.
1DD;	8 3	1DD;	8 3	1FF#;	6	1D;	.	1GG;	5_ 4	1D;	.	1D;	8 3	1D;	8 3	1d;
.	.	.	.	.	.	.	.	.	X 3	.	.	.	.	.	.	.
=6	=6	=6	=6	=6	=6	=6	=6	=6	=6	=6	=6	=6	=6	=6	=6	=6
*G:	*	*G:	*	*G:	*	*	*	*	*	*G:	*	*	*	*	*	*
(4C	3_ 5_	2CC	3 5	2C	8 3	2.D	2 7 4	2G	4# 2	2CnX	.	1CnX	5 3	2AA	.	2e
4BB)	X X	.	.	.	.	.	.	.	.	.	.	.	.	.	.	.
*	*	*	*	*	*	*G:	*	*	*	*	*	*G:	*	*	*	*
(4AA	6_	(4C	4_ 2_	2D	7	.	3_ 8_ 5_	2F#	#6|	2AA	6	.	4 2	2D	.	2f#
4D)	X	8DL	.	.	.	4Cn	X X X	.	.	.	.	.	.	.	.	.
.	.	8CJ)	X X	.	.	.	.	.	.	.	.	.	.	.	.	.
=7.	=7.	=7.	=7.	=7.	=7.	=7.	=7.	=7.	=7.	=7.	=7.	=7.	=7.	=7.	=7.	=7.
4GG	5_ 3_	4BB`	6_	2E	3 5	2BB	6	2E	.	2E	.	2BB	6	2BB	6	2g
8GL	.	4GG`	X	.	.	.	.	.	.	.	.	.	.	.	.	.
8F#J	X X	.	.	.	.	.	.	.	.	.	.	.	.	.	.	.
*	*	*	*	*	*	*	*	*	*	*	*	*	*	*G:	*	*
4G	0	4C`	6 5_	2C	6 5	2AA	6	2C	6	2C	6 5	2C	6 5	2AA	6	2a
4C	6 5	4AA`	x X	.	.	.	.	.	.	.	.	.	.	.	.	.
=8.	=8.	=8.	=8.	=8.	=8.	=8.	=8.	=8.	=8.	=8.	=8.	=8.	=8.	=8.	=8.	=8.
2D	6 4	2D	6 4	2D	6 4	2GG	.	2D	6 4	1D	6 4	2D	6 4	2GG	.	2b
2DD	5 3 7	2DD	5 3 7	2DD	5_ 3_ 8	2DD	8	2DD	5_ 3_ 8	.	5_ 3_ 8	2DD	5_ 3_ 8	2D	8	2a
.	.	.	.	.	X X 7	.	7	.	x x 7	.	X X 7	.	X X 7	.	7	.
=9.	=9.	=9.	=9.	=9.	=9.	=9.	=9.	=9.	=9.	=9.	=9.	=9.	=9.	=9.	=9.	=9.
1GG;	8 3	1GG;	8 3	1GG;	8 3	1GG;	8 3	1GG;	8 3 x	1GG;	X 8 3	1GG;	X 8 3	1GG;	8 3	1g;
=10:|!	=10:|!	=10:|!	=10:|!	=10:|!	=10:|!	=10:|!	=10:|!	=10:|!	=10:|!	=10:|!	=10:|!	=10:|!	=10:|!	=10:|!	=3:|!	=3:|!
(4G	3 5	4GG	.	2GG	.	2G	.	2GG	.	2GG	.	2G	.	2GG	.	2b
*e:	*	*	*	*	*	*	*	*	*	*	*	*	*	*	*	*
4F#)	#6 4 3	8GL	.	.	.	.	.	.	.	.	.	.	.	.	.	.
.	.	8F#J	.	.	.	.	.	.	.	.	.	.	.	.	.	.
(4E	5 3	4G	5 3	2G	.	1C	7	2BB	6	1G	3 5	(4E	5_ 3_	(4BB	6_	2b
*a:	*	*	*	*	*	*	*	*	*	*	*	*	*	*	*	*
4D)	#4| n	4G	.	.	.	.	.	.	.	.	.	4D)	X X	4C)	X	.
=11.	=11.	=11.	=11.	=11.	=11.	=11.	=11.	=11.	=11.	=11.	=11.	=11.	=11.	=11.	=11.	=11.
2C	6	(4F#	6	2F#	6	.	6 4	2C	6 5	.	2 7 4	2C	6	2D	.	2a
.	4 2	4G)	.	.	.	.	.	.	.	.	.	.	4 2	.	.	.
*	*	*C:	*	*	*	*a:	*	*	*	*C:	*	*	*	*	*	*
2BB	6	(4FnX	4 2	2FnX	4 2	2BB	#6|	2BB	6	2F	4 2	2BB	6	2G	.	2b
.	#6	4G)	.	.	.	.	.	.	.	.	.	.	.	.	.	.
=12.	=12.	=12.	=12.	=12.	=12.	=12.	=12.	=12.	=12.	=12.	=12.	=12.	=12.	=12.	=12.	=12.
4AA	n	(4E	6	(4E	6	2AA	.	2AA	7	2E	6	2AA	7	2E	6	2cc
4FnX	5 3	4G)	.	4E-)	.	.	.	.	6	.	.	.	#6|	.	.	.
*	*	*G:	*	*	*	*	*	*	*	*G:	*	*	*	*	*	*
4D	6 5 n	(4D	6_ 4_	4D	6_ 4_	4E	5 3	2GG	.	(4BB	6	2GG	.	(4BB	6_	2b
4E	# 8	4G)	X X	4C#	X X	4D	.	.	.	4GG)	.	.	.	4C)	X	.
.	x 7	.	.	.	.	.	.	.	.	.	.	.	.	.	.	.
=13.	=13.	=13.	=13.	=13.	=13.	=13.	=13.	=13.	=13.	=13.	=13.	=13.	=13.	=13.	=13.	=13.
1AA;	n	1C#;	6 5	1D;	5_ 4	1C#;	6 5	1D;	4	1D;	4	1D;	4	1D;	4	1a;
.	.	.	.	.	X 3	.	.	.	3	.	3	.	3	.	3	.
=14	=14	=14	=14	=14	=14	=14	=14	=14	=14	=14	=14	=14	=14	=14	=14	=14
*G:	*	*G:	*	*	*	*G:	*	*	*	*	*	*	*	*	*	*
4GG	#4|_ 2	2CC	3 5	2C#	6	2r	.	1C	3 5	2AA	.	1C	3 5	2C	.	2e
2G	.	.	.	.	.	.	.	.	.	.	.	.	.	.	.	.
.	X X	(4CnX	4_ 2_	2CnX	4 2	2D	7	.	4 2	2D	7	.	4 2	2AA	6	2f#
4F#	6	8DL	.	.	.	.	.	.	.	.	.	.	.	.	.	.
.	.	8CJ)	X X	.	.	.	.	.	.	.	.	.	.	.	.	.
=15.	=15.	=15.	=15.	=15.	=15.	=15.	=15.	=15.	=15.	=15.	=15.	=15.	=15.	=15.	=15.	=15.
(4E	5_ 3_	(4BB`	6_	2BB	6	2E	7	2BB	6	2E	5 3	2BB	6	2GG	.	2g
8DL	.	4GG`)	X	.	.	.	.	.	.	.	.	.	.	.	.	.
8CJ)	X X	.	.	.	.	.	.	.	.	.	.	.	.	.	.	.
4BB	0	4C`	6_ 5_	2AA	6	2F#	6	2FF#	6	2C	6 5	2C	6 5	2C	6	2a
4C	6 5	4AA`	X X	.	.	.	.	.	.	.	.	.	.	.	.	.
=16.	=16.	=16.	=16.	=16.	=16.	=16.	=16.	=16.	=16.	=16.	=16.	=16.	=16.	=16.	=16.	=16.
2D	6 4	4D	6 4 8	2GG	.	2G	.	2GG	.	2D	6 4	2D	6 4	2D	6 4	2b
.	.	4r	.	.	.	.	.	.	.	.	.	.	.	.	.	.
4r	.	2DD	5 3 7	2D	8	2D	8	2D	8	2DD	5_ 3_ 8	2DD	5_ 3_ 8	2DD	5_ 3_ 8	2a
4DD	8 7 5 3	.	.	.	7	.	7	.	7	.	X X 7	.	X X 7	.	X X 7	.
=17.	=17.	=17.	=17.	=17.	=17.	=17.	=17.	=17.	=17.	=17.	=17.	=17.	=17.	=17.	=17.	=17.
1GG;	.	1GG;	8 3	1GG;	8 3	1GG;	8 3	1GG;	8 3	1G	8 3	1GG;	8 3	1GG;	8 3	1g;
==	==	==	==	==	==	==	==	==	==	==	==	==	==	==	==	==
*-	*-	*-	*-	*-	*-	*-	*-	*-	*-	*-	*-	*-	*-	*-	*-	*-
!!!AGN: chorale
!!!EED: Wolfgang Drescher
!!!END: 2023/04/07
!!!ENC: Wolfgang Drescher
!!!END: 2023/04/13
!!!title: @{ONM}. @{OTL@@DE}